packages/core/src/svgs/ort.svg

<svg width="24" height="24" viewBox="0 0 24 24" fill="none" xmlns="http://www.w3.org/2000/svg">
<g clip-path="url(#clip0_31_15577)">
<path d="M0 0H24V24H0V0Z" fill="#F0F3FA"/>
<path d="M11.533 9.99016L12.2487 9.77588L12.463 10.4959L11.743 10.7059L11.533 9.99016Z" fill="#590577"/>
<path d="M11.717 10.0885L12.1456 9.95996L12.2742 10.3885L11.8456 10.5171L11.717 10.0885Z" fill="#8D5F90"/>
<path d="M12.9385 10.4226L13.3585 10.2983L13.4828 10.7183L13.0628 10.8426L12.9385 10.4226Z" fill="#590577"/>
<path d="M13.0928 10.5084L13.2771 10.4526L13.3328 10.6369L13.1485 10.6926L13.0928 10.5084Z" fill="#8D5F90"/>
<path fill-rule="evenodd" clip-rule="evenodd" d="M12.1371 12.7457L11.7171 12.8657L11.8457 13.2857L12.2614 13.1614L12.1371 12.7457ZM12.0557 12.8957L11.8714 12.9514L11.9271 13.1357L12.1114 13.08L12.0557 12.8957ZM11.3914 11.0186L10.4743 11.2886L10.7443 12.2057L11.6614 11.9357L11.3914 11.0186ZM11.2628 11.2628L10.7185 11.4214L10.8771 11.9614L11.4171 11.8028L11.2585 11.2628H11.2628ZM10.8085 12.7757L10.1143 12.9814L10.32 13.6757L11.0143 13.47L10.8085 12.7757ZM10.7057 12.96L10.2985 13.0843L10.4185 13.4914L10.8257 13.3714L10.7057 12.96Z" fill="#590577"/>
<path d="M12.4585 11.8159L12.9899 11.6616L13.1442 12.1888L12.6128 12.3473L12.4585 11.8159Z" fill="#590577"/>
<path d="M12.6514 11.9231L12.8828 11.8545L12.9514 12.0859L12.7199 12.1545L12.6514 11.9231Z" fill="#8D5F90"/>
<path fill-rule="evenodd" clip-rule="evenodd" d="M12.0001 19.2858C13.9324 19.2858 15.7855 18.5182 17.1518 17.1518C18.5182 15.7855 19.2858 13.9324 19.2858 12.0001C19.2858 10.0678 18.5182 8.21463 17.1518 6.84829C15.7855 5.48196 13.9324 4.71436 12.0001 4.71436C10.0678 4.71436 8.21463 5.48196 6.84829 6.84829C5.48196 8.21463 4.71436 10.0678 4.71436 12.0001C4.71436 13.9324 5.48196 15.7855 6.84829 17.1518C8.21463 18.5182 10.0678 19.2858 12.0001 19.2858ZM12.0001 18.4286C13.5325 18.4287 15.0145 17.8814 16.179 16.8854C17.3436 15.8893 18.114 14.51 18.3514 12.9961C18.5888 11.4822 18.2777 9.9333 17.474 8.62855C16.6703 7.32381 15.427 6.34907 13.9681 5.88003C12.5093 5.41099 10.9308 5.47851 9.51737 6.07042C8.1039 6.66233 6.94835 7.73968 6.25903 9.10829C5.5697 10.4769 5.39194 12.0467 5.75779 13.5348C6.12364 15.0229 7.00902 16.3314 8.25436 17.2244C8.24044 17.204 8.23133 17.1807 8.22773 17.1563C8.22412 17.1319 8.22611 17.107 8.23354 17.0835C8.24097 17.0599 8.25365 17.0384 8.27062 17.0205C8.28759 17.0026 8.30841 16.9888 8.3315 16.9801L8.44293 15.8786L10.4872 14.4644L10.5515 14.5501L8.55007 15.9386L8.44293 16.9801C8.48441 16.9926 8.51924 17.021 8.53973 17.0592C8.56023 17.0974 8.56472 17.1422 8.55221 17.1836C8.53971 17.2251 8.51124 17.26 8.47306 17.2804C8.43488 17.3009 8.39013 17.3054 8.34864 17.2929C9.42156 18.0349 10.6956 18.4311 12.0001 18.4286ZM15.3344 6.7715C15.1844 7.06293 14.5244 7.65864 13.1058 7.73578L11.7215 9.29578L11.8544 9.42436L13.0586 8.01007C13.3029 8.25864 13.7101 8.65293 14.1301 9.03436L13.6758 9.55721L13.8044 9.67293L14.2544 9.1415C14.6186 9.46293 14.9829 9.75436 15.2486 9.90436L13.8344 11.7729L13.9715 11.8544L15.4244 9.98578C15.4372 9.94293 15.4501 9.77578 15.3901 9.4715C15.3129 9.08578 15.2701 8.04436 15.9986 7.35436C15.9258 6.90864 15.5272 6.78007 15.3344 6.7715ZM9.72436 12.2144L9.81864 12.2744L8.53721 14.2372V15.0129C8.57355 15.0256 8.60424 15.0507 8.62382 15.0838C8.64341 15.117 8.65064 15.1559 8.64422 15.1939C8.6378 15.2318 8.61815 15.2663 8.58876 15.2911C8.55936 15.316 8.52212 15.3296 8.48364 15.3296C8.44516 15.3296 8.40792 15.316 8.37853 15.2911C8.34913 15.2663 8.32949 15.2318 8.32307 15.1939C8.31665 15.1559 8.32387 15.117 8.34346 15.0838C8.36304 15.0507 8.39373 15.0256 8.43007 15.0129V14.2029L9.72436 12.2144ZM8.4815 15.2229C8.48979 15.2253 8.49852 15.2257 8.507 15.2241C8.51547 15.2226 8.52347 15.219 8.53035 15.2138C8.53724 15.2086 8.54282 15.2019 8.54667 15.1942C8.55051 15.1865 8.55252 15.178 8.55252 15.1694C8.55252 15.1607 8.55051 15.1522 8.54667 15.1445C8.54282 15.1368 8.53724 15.1301 8.53035 15.1249C8.52347 15.1197 8.51547 15.1162 8.507 15.1146C8.49852 15.113 8.48979 15.1134 8.4815 15.1158C8.46986 15.1191 8.45961 15.1261 8.45232 15.1358C8.44503 15.1455 8.44109 15.1572 8.44109 15.1694C8.44109 15.1815 8.44503 15.1932 8.45232 15.2029C8.45961 15.2126 8.46986 15.2196 8.4815 15.2229ZM8.44293 17.1344C8.4453 17.1426 8.44571 17.1514 8.44413 17.1599C8.44255 17.1683 8.43903 17.1763 8.43383 17.1832C8.42864 17.1901 8.42192 17.1957 8.4142 17.1995C8.40648 17.2034 8.39798 17.2054 8.38936 17.2054C8.38073 17.2054 8.37223 17.2034 8.36451 17.1995C8.35679 17.1957 8.35007 17.1901 8.34488 17.1832C8.33968 17.1763 8.33616 17.1683 8.33458 17.1599C8.333 17.1514 8.33342 17.1426 8.33578 17.1344C8.33911 17.1227 8.34614 17.1125 8.3558 17.1052C8.36547 17.0979 8.37725 17.0939 8.38936 17.0939C8.40146 17.0939 8.41324 17.0979 8.42291 17.1052C8.43257 17.1125 8.4396 17.1227 8.44293 17.1344ZM12.3172 13.9158L10.8772 15.6215L9.48007 16.4829V16.5086C9.47979 16.546 9.46664 16.5822 9.44284 16.6111C9.41904 16.6399 9.38603 16.6597 9.34936 16.6671C9.3127 16.6745 9.2746 16.669 9.24149 16.6516C9.20838 16.6342 9.18226 16.6059 9.16753 16.5716C9.15279 16.5372 9.15034 16.4988 9.16059 16.4628C9.17083 16.4268 9.19314 16.3955 9.22377 16.374C9.25441 16.3526 9.29149 16.3423 9.3288 16.345C9.36611 16.3476 9.40136 16.3631 9.42864 16.3886L10.8044 15.5358L12.2358 13.8429L12.3172 13.9158ZM9.31721 16.5644C9.3255 16.5667 9.33423 16.5671 9.34271 16.5656C9.35119 16.564 9.35918 16.5605 9.36607 16.5553C9.37295 16.5501 9.37854 16.5433 9.38238 16.5356C9.38623 16.5279 9.38823 16.5194 9.38823 16.5108C9.38823 16.5022 9.38623 16.4937 9.38238 16.4859C9.37854 16.4782 9.37295 16.4715 9.36607 16.4663C9.35918 16.4611 9.35119 16.4576 9.34271 16.456C9.33423 16.4544 9.3255 16.4548 9.31721 16.4572C9.30557 16.4605 9.29533 16.4676 9.28804 16.4772C9.28075 16.4869 9.2768 16.4987 9.2768 16.5108C9.2768 16.5229 9.28075 16.5347 9.28804 16.5443C9.29533 16.554 9.30557 16.561 9.31721 16.5644Z" fill="#590080"/>
</g>
<defs>
<clipPath id="clip0_31_15577">
<rect width="24" height="24" fill="white"/>
</clipPath>
</defs>
</svg>

<svg xmlns="http://www.w3.org/2000/svg" width="24" height="24" fill="none" viewBox="0 0 24 24"><g clip-path="url(#a)"><path fill="#F0F3FA" d="M0 0h24v24H0z"/><path fill="#590577" d="m11.533 9.99.716-.214.214.72-.72.21z"/><path fill="#8D5F90" d="m11.717 10.089.429-.129.128.428-.428.13z"/><path fill="#590577" d="m12.939 10.423.42-.125.124.42-.42.125z"/><path fill="#8D5F90" d="m13.093 10.508.184-.055.056.184-.184.056z"/><path fill="#590577" fill-rule="evenodd" d="m12.137 12.746-.42.12.129.42.415-.125zm-.081.15-.185.055.056.185.184-.056zm-.665-1.877-.917.27.27.917.917-.27zm-.128.244-.544.158.158.54.54-.158-.159-.54zm-.454 1.513-.695.205.206.695.694-.206zm-.103.184-.407.124.12.407.407-.12z" clip-rule="evenodd"/><path fill="#590577" d="m12.459 11.816.53-.154.155.527-.531.158z"/><path fill="#8D5F90" d="m12.651 11.923.232-.069.068.232-.231.069z"/><path fill="#590080" fill-rule="evenodd" d="M12 19.286a7.285 7.285 0 1 0 0-14.57 7.285 7.285 0 0 0 0 14.57m0-.857a6.429 6.429 0 1 0-3.746-1.205.163.163 0 0 1 .078-.244l.11-1.101 2.045-1.415.065.086L8.55 15.94l-.107 1.041a.163.163 0 1 1-.094.313A6.4 6.4 0 0 0 12 18.429m3.334-11.657c-.15.29-.81.887-2.228.964l-1.384 1.56.132.128L13.06 8.01c.244.249.651.643 1.071 1.024l-.454.523.128.116.45-.531c.365.32.729.612.995.762l-1.415 1.869.138.081 1.452-1.868c.013-.043.026-.21-.034-.514-.077-.386-.12-1.428.609-2.118-.073-.445-.472-.574-.665-.583m-5.61 5.442.095.06-1.282 1.963v.776a.163.163 0 1 1-.107 0v-.81zm-1.242 3.009a.06.06 0 0 0 .048-.01.056.056 0 1 0-.048.01m-.04 1.911a.056.056 0 1 1-.106.031.056.056 0 0 1 .107-.03m3.875-3.218-1.44 1.705-1.397.862v.026a.163.163 0 1 1-.051-.12l1.375-.853 1.432-1.693zm-3 2.648a.056.056 0 0 0 .065-.078.056.056 0 1 0-.065.078" clip-rule="evenodd"/></g><defs><clipPath id="a"><path fill="#fff" d="M0 0h24v24H0z"/></clipPath></defs></svg>
